X:1
T:He’s All the World to Me
T:He’s All the World to Me
T:Ben Hains
T:Ben Hains, 1900
T:Public Domain Courtesy of the Cyber Hymnal™
T:Public Domain Courtesy of the Cyber Hymnal™
C:Ben Hains
Z:Public Domain
Z:Courtesy of the Cyber Hymnal™
%%score ( 1 2 ) ( 3 4 )
L:1/8
Q:1/4=95
M:3/4
K:G
V:1 treble 
V:2 treble 
V:3 bass 
V:4 bass 
V:1
 D2 | [DG]3 D [DG]>[GB] | [Gd]2 [DB]2 [DG]2 | [EG]3 [EA] [EG]>[CE] | [B,D]4 [DG]2 | %5
w: 1.~I’ve|found a friend in|Je- sus, He’s|all the world to|me; So|
w: 2.~He|fills my heart with|glad- ness And|makes my tongue to|sing; ’Tis|
w: 3.~Oh,|list- en! Hear Him|call- ing: “My|life for thee I|gave, In|
 [DF] [DA]3 [DA]2 | [DG] [GB]3 [GB]2 | [GB]3 [GA] E>[GA] | [FA]4 [GB]2 | [Ac]3 [Ac] [GB]>[FA] | %10
w: ten- der, so|lov- ing, More|than I dreamed could|be; He|brought me out of|
w: rap- ture, ’tis|glo- ry, To|live for such a|king! The|world is bright- er|
w: sor- row, in|an- guish, Thy|way- ward soul to|save!” Oh,|quick- ly an- swer|
 [GB]2 [Gd]2 [=FG]2 | [EG]3 [Ec] [EG]>[Ec] | [DB]4 [Dc]2 | [Gd]3 [Ge] [Gd]>[Gc] | %14
w: dark- ness In-|to His glor- ious|light; My|soul is grate- ful|
w: round me, His|sun- shine rich- er|glows, Since|Christ, my Lord, has|
w: to Him: “Lord,|save a sin- ful|soul; Thy|love has won me|
 [GB]2 [Gd]2 [Ec]2 | [DB]3 [DG] [DA]>[DA] | [DG]4 ||"^Refrain" [DG]2 | [EG]3 [EA] [EG]>E | %19
w: to Him— I’ll|serve Him with my|might.|||
w: found me, And|with me ev- er|goes.|He’s|all the world to|
w: to Thee, For-|give, and make me|whole.”|||
 [DG]4 [DG]2 | [GB]3 [Gc] [GB]>[DG] | [GB]4 [Gc]2 | [Gd]3 [Ge] [Gd]>[Gc] | [GB] [Gd]3 [Ec]2 | %24
w: |||||
w: me, He’s|all the world to|me; Oh,|praise His name for-|ev- er, He’s|
w: |||||
 [DB]3 [DG] [DA]>[DA] | [DG]4 |] %26
w: ||
w: all the world to|me.|
w: ||
V:2
 D2 | x3 D x2 | x6 | x6 | x6 | x6 | x6 | x4 E3/2 x/ | x6 | x6 | x6 | x6 | x6 | x6 | x6 | x6 | x4 || %17
 x2 | x11/2 E/ | x6 | x6 | x6 | x6 | x6 | x6 | x4 |] %26
V:3
 [G,B,]2 | [G,B,]3 [G,B,] [G,B,]>[G,D] | [G,B,]2 G,2 [B,,G,]2 | [C,C]3 [C,C] [C,C]>[C,G,] | %4
 [G,,G,]4 [G,B,]2 | [D,A,] [D,C]3 [D,C]2 | [G,B,] [G,D]3 [G,D]2 | [A,^C]3 [A,C] [A,C]>[A,C] | %8
 [D,D]4 [D,D]2 | [D,D]3 [D,D] [D,D]>[D,D] | [G,D]2 [G,B,]2 [B,,G,]2 | [C,C]3 [C,G,] [C,C]>[C,G,] | %12
 G,4 [G,A,]2 | [G,B,]3 [G,C] [G,B,]>[G,E] | [G,D]2 [G,B,]2 [C,G,]2 | [D,G,]3 [D,B,] [D,C]>[D,C] | %16
 [G,,B,]4 || [G,B,]2 | [C,C]3 [C,C] [C,C]>[C,C] | [G,,B,]4 [G,,B,]2 | [G,D]3 [G,E] [G,D]>[G,B,] | %21
 [G,D]4 [G,A,]2 | [G,B,]3 [G,C] [G,B,]>[G,E] | [G,D] [G,B,]3 [C,G,]2 | [D,G,]3 [D,B,] [D,C]>[D,C] | %25
 [G,,B,]4 |] %26
V:4
 x2 | x6 | x2 G,2 x2 | x6 | x6 | x6 | x6 | x6 | x6 | x6 | x6 | x6 | G,4 x2 | x6 | x6 | x6 | x4 || %17
 x2 | x6 | x6 | x6 | x6 | x6 | x6 | x6 | x4 |] %26

